X:1
T:Che io non pianga
T:Che io non pianga
T:Marc'Antonio Tornioli
T:Source : Canzonette spirituale a tre voci---Libro Primo---Venetia---Ang.Gardano---1607. Editor : André Vierendeels (23/06/16).
T:Notes : Original clefs : C1, C1, F4 Editorial accidentals above the staff This Canzonette is the answer (Riposta) to the canzonette "Non pianger piu Maria"
T:Riposta
T:©
T:©
T:©
T:©
C:Marc'Antonio Tornioli
Z:©
%%score [ 1 2 3 ]
L:1/8
Q:1/4=90
M:4/4
K:C
V:1 treble nm="Soprano 1" snm="S 1"
V:2 treble nm="Soprano 2" snm="S 2"
V:3 bass nm="Bass" snm="B"
V:1
 z8 | z2 FF d4- | d4 ^c4 | z8 | z2 CC A4- | A4 ^G4 | z2 E2 D4 | E4 E4 | A2 G2 E2 ^F2 | ^G4 z2 c2 | %10
w: |Ch'io non pian-|* ga?||Ch'io non pian-|* ga,|pian- go|io per-|che non pian- gi|tu cor|
w: |Pian- go'il tu-|o, _||pian- go'il tu-|* o,|pian- ger|va- no,|che do- ni'al Mon-|do lu-|
 _B4 B4 | A6 GF | E8 |[M:2/4] ^F4 :: z4 |[M:4/4] B4 B2 d2 | c2 B2 e4 | d2 D2 C2 D2 | EFGA B4 | %19
w: du- ro'e|ri- * *||o.||Pian- go que|gl'oc- chi tuo-|i, co- tan- to'as-|cut- t'in tan- ti fal-|
w: sin ghie-|ro e in-|sa-|no||Pian- go ch'in|Dio mi'uc- ci-|di, qual hor da-|lui- ti par- ti'e ti|
 G4 d4 | B c2 B c2 E2 | F2 G2 ABcd | e4 B2 B2 | A2 F2 E2 E2 | ^F2 G4 F2 | G8 :| %26
w: li tuo-|* * * i, co-|tan- to'as- cut- t'in tan- ti|fal- li, in|tan- ti fal- li|suo- * *|i.|
w: di- vi-|* * * di, qual|hor da- lui- ti par- ti'e|ti di- vi-|di, par- ti'e di-|vi- * *|di.|
V:2
 z2 DD _B4 | D8 | E6 EE |"^-natural" c4 A2 A2 | A4 c3 A | B6 B2 | B2 c4 B2 | c4 z2 c2 | %8
w: Ch'io non pian-||ga? Ch'io non|pian ga, non|pian- * *|ga, pian-|go i- *|o, per-|
w: Pian- go'il tu-||o, pian- go'il|tu- o, pian-|ger va- *|no, pian-|ger va- *|no, che|
 c2 B2 A3 d |"^-natural" B4 A2 G2- | G2 G2 G4 | C4 D4- | D2 CB, ^C4 |[M:2/4] D4 :: D4- | %15
w: che non pian- gi|tu cor du-|* ro'e ri-|||o.|Pian-|
w: do- ni'al Mon- do|lu- sin- ghie-|* ro'e in-|sa- *||no.|Pian-|
[M:4/4] D4 D2 F2 | G2 D2 G2 A2 | B4 z4 | z4 z2 D2 | E2 F2 GABc | d2 d2 c4 | B4 z4 | z2 C2 D2 E2 | %23
w: * go que|gl'oc- chi tuo- *|i,|co-|tan- to'as- cut- t'in tan- ti|fal- li suo-|i,|co- tann- t'in|
w: * go ch'in|Dio mi'uc- ci- *|di,|qual|hor da- lui- ti par- ti'e|ti di- vi-|di,|qual hor da-|
 FGAB c4- | c2 B2 A4 | G8 :| %26
w: tan- ti fal- li, tan-|* ti fal-|li.|
w: lui- ti par- ti'e di-|* * vi-|di.|
V:3
 z4 z2 D,D, | _B,8 | A,8 | z2 A,,A,, F,4- | F,8 | E,6 E,2 | G,8 | C,4 A,,4 | A,,2 B,,2 C,2 D,2 | %9
w: Ch'io non|pian-|ga?|Ch'io non pian-||pian- go|i-|o, per-|che non pian- gi|
w: Pian- go'il|tu-|o,|pian- go'il tu-||o, pian-|ger|va- no,|che do- ni'al Mon-|
 E,4 C,4 | D,4 E,4 | F,6 G,2 | A,8 |[M:2/4] D,4 :: z4 |[M:4/4] G,4 G,2 D,2 | E,2 G,2 C,4 | %17
w: tu cor|du- ro'e|ri- *||o.||Pian- go que|gl'oc- chi tuo-|
w: do lu-|sin- ghie-|ro e'in-|sa-|no,||Pian- go ch'in|Dio mi'ic- ci-|
 G,,2 G,,2 A,,2 B,,2 | C,D,E,F, G,4 | C,4 G,,4- | G,,4 C,2 C,2 | D,2 E,2 F,G,A,B, | C4 G,2 G,2 | %23
w: i, co- tan- to'as-|cut- t'in tan- ti fal-|li tuo-|* i, co-|tan- to'as- cut- t'in tan- ti|fal- li, in|
w: di, qual hor da-|lui- ti par- ti'e ti|di- vi-|* di, qual|hor da- lui- ti par- ti'e|ti di- vi-|
 D,2 D,2 A,,2 A,,2 | D,8 | G,,8 :| %26
w: tan- ti fal- li|suo-|i.|
w: di, par- ti'e di-|vi-|di.|

